img/logo_htmlacademy.svg

<svg width="115" height="34" viewBox="0 0 115 34" fill="none" xmlns="http://www.w3.org/2000/svg">
<g clip-path="url(#clip0)">
<path d="M0 12.8804V15.4565H2.45789V12.8804H0Z" fill="#F0C52E"/>
<path d="M11.6466 4.52965C10.0864 4.52965 8.8254 5.23807 8.03461 6.26851H7.94911V0H5.9187V15.4566H7.94911V10.1541C7.94911 8.02886 9.27424 6.50466 11.2192 6.50466C13.0573 6.50466 14.1259 7.87858 14.1259 9.72478V15.4566H16.1563V9.35984C16.1563 6.41878 14.3396 4.52965 11.6466 4.52965Z" fill="#F0C52E"/>
<path d="M26.6171 4.83006H21.8082V1.07324H19.7778V4.83006H17.8542V6.80507H19.7778V12.7945C19.7778 14.5119 20.7396 15.4565 22.4708 15.4565H26.6171V13.46H22.8769C22.193 13.46 21.8082 13.0736 21.8082 12.4081V6.80507H26.6171V4.83006Z" fill="#F0C52E"/>
<path d="M41.1216 4.55078C39.4971 4.55078 38.2577 5.34508 37.5737 6.61167H37.5096C36.8897 5.36656 35.7356 4.55078 34.1541 4.55078C32.7434 4.55078 31.6747 5.30214 31.0336 6.35406H30.948V4.82987H29.0032V15.4563H31.0336V10.0035C31.0336 8.00705 32.0807 6.54727 33.6625 6.50434C35.1584 6.4614 36.0348 7.53478 36.0348 9.14483V15.4563H38.0653V9.83179C38.0653 7.4489 39.4759 6.50434 40.6941 6.50434C42.1689 6.50434 43.0452 7.53478 43.0452 9.14483V15.4563H45.0754V8.93016C45.0754 6.35406 43.6222 4.55078 41.1216 4.55078Z" fill="#F0C52E"/>
<path d="M47.8271 12.7088C47.8271 14.4476 48.8103 15.4566 50.6269 15.4566H52.6359V13.4816H50.9261C50.2421 13.4816 49.8574 13.0952 49.8574 12.4297V0H47.8271V12.7088Z" fill="#F0C52E"/>
<path d="M28.9048 19.7065H28.8192C28.027 18.6395 26.7425 17.8925 25.0295 17.8712C21.882 17.8285 19.6338 20.1547 19.6338 23.4413C19.6338 26.7492 21.9248 29.0755 25.008 29.0328C26.7637 29.0114 28.027 28.2218 28.8192 27.0906H28.9048V28.7339H30.9177V18.1699H28.9048V19.7065ZM25.3077 27.0694C23.081 27.0694 21.6679 25.4473 21.6679 23.4413C21.6679 21.4352 23.081 19.8132 25.3077 19.8132C27.4703 19.8132 28.8836 21.4352 28.8836 23.4413C28.8836 25.4261 27.4703 27.0694 25.3077 27.0694Z" fill="#F0C52E"/>
<path d="M44.2095 22.0113C43.717 19.6211 41.5973 17.8711 38.8139 17.8711C35.4524 17.8711 33.2042 20.3253 33.2042 23.4412C33.2042 26.557 35.4524 29.0327 38.8139 29.0327C41.5973 29.0327 43.717 27.24 44.2095 24.8284H42.0898C41.6617 26.1729 40.3984 27.0905 38.8354 27.0905C36.6513 27.0905 35.2381 25.4472 35.2381 23.4412C35.2381 21.4351 36.6513 19.8131 38.8354 19.8131C40.4625 19.8131 41.6617 20.7735 42.0898 22.0113H44.2095Z" fill="#F0C52E"/>
<path d="M55.0836 19.7065H54.998C54.2058 18.6395 52.921 17.8925 51.2081 17.8712C48.0607 17.8285 45.8125 20.1547 45.8125 23.4413C45.8125 26.7492 48.1036 29.0755 51.1866 29.0328C52.9425 29.0114 54.2058 28.2218 54.998 27.0906H55.0836V28.7339H57.0962V18.1699H55.0836V19.7065ZM51.4866 27.0694C49.2596 27.0694 47.8466 25.4473 47.8466 23.4413C47.8466 21.4352 49.2596 19.8132 51.4866 19.8132C53.6491 19.8132 55.0622 21.4352 55.0622 23.4413C55.0622 25.4261 53.6491 27.0694 51.4866 27.0694Z" fill="#F0C52E"/>
<path d="M68.6538 19.8128H68.5682C67.776 18.6817 66.4483 17.892 64.7568 17.8707C61.6738 17.828 59.3827 20.1542 59.3827 23.4621C59.3827 26.7487 61.6309 29.075 64.7783 29.0323C66.4483 29.0109 67.776 28.264 68.5468 27.1969H68.6538V28.7334H70.6665V13.3677H68.6538V19.8128ZM65.0568 27.0901C62.8298 27.0901 61.4168 25.4683 61.4168 23.4621C61.4168 21.4561 62.8298 19.8341 65.0568 19.8341C67.2193 19.8341 68.6324 21.4774 68.6324 23.4621C68.6324 25.4683 67.2193 27.0901 65.0568 27.0901Z" fill="#F0C52E"/>
<path d="M78.3297 17.8711C75.0752 17.8711 72.8483 20.368 72.8483 23.4625C72.8483 26.4716 74.9467 29.0327 78.3724 29.0327C80.8561 29.0327 82.8475 27.6882 83.5541 25.4472H81.4342C80.9634 26.4504 79.8286 27.0905 78.4582 27.0905C76.5312 27.0905 75.1608 25.8101 75.0108 24.1668H83.7682C84.0464 20.6455 81.8412 17.8711 78.3297 17.8711ZM78.2868 19.8131C79.9783 19.8131 81.2416 20.8589 81.5627 22.3741H75.0538C75.3534 20.8802 76.6168 19.8131 78.2868 19.8131Z" fill="#F0C52E"/>
<path d="M98.1985 17.8926C96.5713 17.8926 95.3295 18.6822 94.6443 19.9413H94.5799C93.9591 18.7035 92.8029 17.8926 91.2184 17.8926C89.8054 17.8926 88.7347 18.6395 88.0924 19.6853H88.0068V18.17H86.0583V28.7339H88.0924V23.3133C88.0924 21.3285 89.1417 19.8773 90.7261 19.8346C92.2247 19.792 93.1028 20.859 93.1028 22.4596V28.7339H95.1368V23.1426C95.1368 20.7737 96.5499 19.8346 97.7703 19.8346C99.2477 19.8346 100.125 20.859 100.125 22.4596V28.7339H102.16V22.2462C102.16 19.6853 100.704 17.8926 98.1985 17.8926Z" fill="#F0C52E"/>
<path d="M109.441 27.0474L105.801 18.1694H103.553L108.392 29.7365L108.371 29.7792C108.028 30.6541 107.643 30.9743 106.701 30.9743H104.196V33.0016H106.701C108.542 33.0016 109.527 32.1694 110.212 30.3766L114.88 18.1694H112.803L109.441 27.0474Z" fill="#F0C52E"/>
</g>
<defs>
<clipPath id="clip0">
<rect width="115" height="33.0294" fill="white"/>
</clipPath>
</defs>
</svg>

<svg width="115" height="34" fill="none" xmlns="http://www.w3.org/2000/svg"><g clip-path="url(#clip0)" fill="#F0C52E"><path d="M0 12.88v2.576h2.458V12.88H0zM11.647 4.53c-1.56 0-2.822.708-3.612 1.739h-.086V0H5.92v15.457h2.03v-5.303c0-2.125 1.325-3.65 3.27-3.65 1.838 0 2.907 1.375 2.907 3.22v5.733h2.03V9.36c0-2.941-1.816-4.83-4.51-4.83zM26.617 4.83h-4.809V1.073h-2.03V4.83h-1.924v1.975h1.924v5.99c0 1.717.962 2.662 2.693 2.662h4.146V13.46h-3.74c-.684 0-1.069-.386-1.069-1.052V6.805h4.81V4.83zM41.122 4.55c-1.625 0-2.864.795-3.548 2.062h-.064c-.62-1.245-1.774-2.061-3.356-2.061-1.41 0-2.48.751-3.12 1.803h-.086V4.83h-1.945v10.626h2.03v-5.452c0-1.997 1.048-3.457 2.63-3.5 1.495-.043 2.372 1.03 2.372 2.64v6.312h2.03V9.832c0-2.383 1.41-3.328 2.63-3.328 1.474 0 2.35 1.03 2.35 2.64v6.312h2.03V8.93c0-2.576-1.453-4.38-3.953-4.38zM47.827 12.709c0 1.739.983 2.748 2.8 2.748h2.009v-1.975h-1.71c-.684 0-1.069-.387-1.069-1.052V0h-2.03v12.709zM28.905 19.706h-.086c-.792-1.066-2.076-1.814-3.79-1.835-3.147-.043-5.395 2.284-5.395 5.57 0 3.308 2.29 5.635 5.374 5.592 1.756-.022 3.019-.811 3.811-1.942h.086v1.643h2.013V18.17h-2.013v1.536zm-3.597 7.363c-2.227 0-3.64-1.622-3.64-3.628 0-2.006 1.413-3.628 3.64-3.628 2.162 0 3.576 1.622 3.576 3.628 0 1.985-1.414 3.628-3.576 3.628zM44.21 22.011c-.493-2.39-2.613-4.14-5.396-4.14-3.362 0-5.61 2.454-5.61 5.57s2.248 5.592 5.61 5.592c2.783 0 4.903-1.793 5.395-4.205h-2.12c-.427 1.345-1.69 2.262-3.254 2.262-2.184 0-3.597-1.643-3.597-3.649 0-2.006 1.413-3.628 3.597-3.628 1.627 0 2.827.96 3.255 2.198h2.12zM55.084 19.706h-.086c-.792-1.066-2.077-1.814-3.79-1.835-3.147-.043-5.395 2.284-5.395 5.57 0 3.308 2.29 5.635 5.374 5.592 1.756-.022 3.019-.811 3.811-1.942h.086v1.643h2.012V18.17h-2.012v1.536zm-3.597 7.363c-2.227 0-3.64-1.622-3.64-3.628 0-2.006 1.413-3.628 3.64-3.628 2.162 0 3.575 1.622 3.575 3.628 0 1.985-1.413 3.628-3.575 3.628zM68.654 19.813h-.086c-.792-1.131-2.12-1.921-3.811-1.942-3.083-.043-5.374 2.283-5.374 5.591 0 3.287 2.248 5.613 5.395 5.57 1.67-.021 2.998-.768 3.769-1.835h.107v1.536h2.013V13.368h-2.013v6.445zm-3.597 7.277c-2.227 0-3.64-1.622-3.64-3.628 0-2.006 1.413-3.628 3.64-3.628 2.162 0 3.575 1.643 3.575 3.628 0 2.006-1.413 3.628-3.575 3.628zM78.33 17.871c-3.255 0-5.482 2.497-5.482 5.591 0 3.01 2.099 5.57 5.524 5.57 2.484 0 4.475-1.344 5.182-3.585h-2.12c-.47 1.003-1.605 1.643-2.976 1.643-1.927 0-3.297-1.28-3.447-2.923h8.757c.278-3.522-1.927-6.296-5.438-6.296zm-.043 1.942c1.691 0 2.955 1.046 3.276 2.561h-6.51c.3-1.494 1.564-2.56 3.234-2.56zM98.198 17.893c-1.627 0-2.868.79-3.554 2.048h-.064c-.62-1.238-1.777-2.048-3.362-2.048-1.413 0-2.483.747-3.126 1.792h-.085V18.17h-1.949v10.564h2.034v-5.42c0-1.986 1.05-3.437 2.634-3.48 1.499-.042 2.377 1.025 2.377 2.626v6.274h2.034v-5.591c0-2.37 1.413-3.308 2.633-3.308 1.478 0 2.355 1.024 2.355 2.625v6.274h2.035v-6.488c0-2.56-1.456-4.353-3.962-4.353zM109.441 27.047l-3.64-8.878h-2.248l4.839 11.567-.021.043c-.343.875-.728 1.195-1.67 1.195h-2.505v2.028h2.505c1.841 0 2.826-.833 3.511-2.625l4.668-12.208h-2.077l-3.362 8.878z"/></g><defs><clipPath id="clip0"><path fill="#fff" d="M0 0h115v33.029H0z"/></clipPath></defs></svg>
